X: 5
T: Laura Lynn Cunningham
R: reel
M: 4/4
L: 1/8
K: Bmin
~B2cA BF~F2|EFAB ceae|fB~B2 FBBc|Acef ~c2dc|
Bbbf a2fe|cfec ecBc|BFFB AEce|fcec B3A:|
FB~B2 Ac~c2|df~f2 eaae|fB~B2 FBBc|Acef ~c2BA|
FB~B2 AB (3cBA|defd cAAc|Bffc ecAB|cfec B3A|
FB~B2 Ac~c2|df~f2 eaae|fB~B2 FBBc|Acef ~c2dc|
Bbbf a2fe|cfec ecBc|BFFB AEce|fcec B3z||


Tune 699	Setting 26097

